public/showcase/resources/images/mono/multimedia-active.svg

<svg enable-background="new 0 0 87.318 83.411" height="83.411" viewBox="0 0 87.318 83.411" width="87.318" xmlns="http://www.w3.org/2000/svg"><g fill="#03c4e8"><path d="m60.707 28.371c12.215 0 22.152 9.938 22.152 22.153s-9.938 22.151-22.152 22.151c-12.213 0-22.15-9.937-22.15-22.151-.001-12.216 9.937-22.153 22.15-22.153m0-4.43c-14.68 0-26.581 11.9-26.581 26.583 0 14.681 11.901 26.582 26.581 26.582 14.682 0 26.583-11.901 26.583-26.582 0-14.683-11.902-26.583-26.583-26.583z"/><path d="m32.536 63.923h-24.754c-1.834 0-3.324-1.491-3.324-3.323v-46.542c0-1.833 1.49-3.322 3.324-3.322h65.682c1.832 0 3.321 1.489 3.321 3.322v9.9c1.578.989 3.063 2.109 4.431 3.354v-13.254c0-4.282-3.47-7.753-7.752-7.753h-65.682c-4.283 0-7.754 3.471-7.754 7.753v46.542c0 4.282 3.472 7.753 7.754 7.753h27.424c-1.007-1.395-1.903-2.874-2.67-4.43z"/><path d="m55.576 63.988c-.94.618-2.298.013-2.298-.769v-25.22c0-.78 1.171-1.674 2.222-.889l18.757 12.201c.688.52.702 1.685.025 2.127"/><path d="m28.281 18.476c-2.846 0-4.431-1.261-4.431-1.261l.827 27.296c-2.091-.625-4.807-.346-7.38.96-4.285 2.173-6.535 6.347-5.027 9.325 1.509 2.975 6.207 3.627 10.492 1.453 3.178-1.612 5.234-4.326 5.468-6.837h.028v-27.398s1.06.02 2.483-1.344c1.661-1.59 2.562-4.592 2.562-4.592s-2.541 2.398-5.022 2.398z"/></g></svg>

<?xml version="1.0" encoding="utf-8"?>
<!-- Generator: Adobe Illustrator 15.1.0, SVG Export Plug-In . SVG Version: 6.00 Build 0)  -->
<!DOCTYPE svg PUBLIC "-//W3C//DTD SVG 1.1//EN" "http://www.w3.org/Graphics/SVG/1.1/DTD/svg11.dtd">
<svg version="1.1" id="Layer_1" xmlns="http://www.w3.org/2000/svg" xmlns:xlink="http://www.w3.org/1999/xlink" x="0px" y="0px"
	 width="87.318px" height="83.411px" viewBox="0 0 87.318 83.411" enable-background="new 0 0 87.318 83.411" xml:space="preserve">
<g id="MULTIMEDIA">
	<path fill="#03c4e8" d="M60.707,28.371c12.215,0,22.152,9.938,22.152,22.153c0,12.215-9.938,22.151-22.152,22.151
		c-12.213,0-22.15-9.937-22.15-22.151C38.556,38.308,48.494,28.371,60.707,28.371 M60.707,23.941
		c-14.68,0-26.581,11.9-26.581,26.583c0,14.681,11.901,26.582,26.581,26.582c14.682,0,26.583-11.901,26.583-26.582
		C87.29,35.841,75.388,23.941,60.707,23.941L60.707,23.941z"/>
	<path fill="#03c4e8" d="M32.536,63.923H7.782c-1.834,0-3.324-1.491-3.324-3.323V14.058c0-1.833,1.49-3.322,3.324-3.322h65.682
		c1.832,0,3.321,1.489,3.321,3.322v9.9c1.578,0.989,3.063,2.109,4.431,3.354V14.058c0-4.282-3.47-7.753-7.752-7.753H7.782
		c-4.283,0-7.754,3.471-7.754,7.753V60.6c0,4.282,3.472,7.753,7.754,7.753h27.424C34.199,66.958,33.303,65.479,32.536,63.923z"/>
	<path fill="#03c4e8" d="M55.576,63.988c-0.94,0.618-2.298,0.013-2.298-0.769V37.999c0-0.78,1.171-1.674,2.222-0.889l18.757,12.201
		c0.688,0.52,0.702,1.685,0.025,2.127"/>
	<path fill="#03c4e8" d="M28.281,18.476c-2.846,0-4.431-1.261-4.431-1.261l0.827,27.296c-2.091-0.625-4.807-0.346-7.38,0.96
		c-4.285,2.173-6.535,6.347-5.027,9.325c1.509,2.975,6.207,3.627,10.492,1.453c3.178-1.612,5.234-4.326,5.468-6.837h0.028V22.014
		c0,0,1.06,0.02,2.483-1.344c1.661-1.59,2.562-4.592,2.562-4.592S30.762,18.476,28.281,18.476z"/>
</g>
</svg>
